X: 5
T: The Wheels Of The World
R: reel
M: 4/4
L: 1/8
K: Dmix
|:gf|eAAB cBcA|GEEF G2 EG|AGAB cBcd|efge dfgf|
eAAB cBcA|GEEF G2 EG|AGAB cBcd|efge d2 Bc||
|:dg g2 dg g2|ea a2 ea a2|effe defg|afge dcBc|
dg g2 dg g2|ea a2 ea a2|effe defg|afge d2:||


Tune 1010	Setting 14226

